X: 1
T: Homer's
M: 4/4
L: 1/8
R: reel
K: Bmin
|:f2ed B2e2|dBAF E2FA|BF~F2 Bcdf|edef a4|
f2ed B2e2|dBAF E2FA|BF~F2 Bcdf|edBA B4:|
|:B2dA BFAB|edef a3f|edBA F3A|dBAF E2FA|
B2dA BFAB|edef a2fa|b2af e2a2|fedA B4:|
